Tebu-Flat/status/scalable/network-wired-offline.svg

<?xml version="1.0" encoding="UTF-8" standalone="no"?>
<svg
   xmlns:dc="http://purl.org/dc/elements/1.1/"
   xmlns:cc="http://creativecommons.org/ns#"
   xmlns:rdf="http://www.w3.org/1999/02/22-rdf-syntax-ns#"
   xmlns:svg="http://www.w3.org/2000/svg"
   xmlns="http://www.w3.org/2000/svg"
   xmlns:sodipodi="http://sodipodi.sourceforge.net/DTD/sodipodi-0.dtd"
   xmlns:inkscape="http://www.inkscape.org/namespaces/inkscape"
   id="svg7384"
   height="24"
   width="24"
   version="1.1"
   inkscape:version="0.91 r13725"
   sodipodi:docname="network-wired-offline-symbolic.svg">
  <sodipodi:namedview
     pagecolor="#ffffff"
     bordercolor="#666666"
     borderopacity="1"
     objecttolerance="10"
     gridtolerance="10"
     guidetolerance="10"
     inkscape:pageopacity="0"
     inkscape:pageshadow="2"
     inkscape:window-width="640"
     inkscape:window-height="480"
     id="namedview16" />
  <title
     id="title9167">elementary Symbolic Icon Theme</title>
  <metadata
     id="metadata90">
    <rdf:RDF>
      <cc:Work
         rdf:about="">
        <dc:format>image/svg+xml</dc:format>
        <dc:type
           rdf:resource="http://purl.org/dc/dcmitype/StillImage" />
        <dc:title>elementary Symbolic Icon Theme</dc:title>
      </cc:Work>
    </rdf:RDF>
  </metadata>
  <defs
     id="defs7386" />
  <g
     style="display:inline"
     id="layer10"
     transform="translate(-473.0004,610)" />
  <g
     id="layer11"
     transform="translate(-473.0004,610)" />
  <g
     style="display:inline"
     id="layer13"
     transform="translate(-473.0004,610)" />
  <g
     id="layer14"
     transform="translate(-473.0004,610)" />
  <g
     style="display:inline"
     id="layer15"
     transform="translate(-473.0004,610)" />
  <g
     style="display:inline"
     id="g71291"
     transform="translate(-473.0004,610)" />
  <g
     style="display:inline"
     id="g4953"
     transform="translate(-473.0004,610)" />
  <g
     style="display:inline"
     id="layer12"
     transform="translate(-473.0004,610)" />
  <path
     id="rect2986-4"
     d="M 9 6 L 9 11 L 11 11 L 11 12 L 4 12 L 4 13 L 7 13 L 7 14 L 5 14 L 5 19 L 11 19 L 11 14 L 9 14 L 9 13 L 15 13 L 15 14 L 13 14 L 13 19 L 16.146484 19 A 1.0044145 1.0044145 0 0 1 15.996094 18.46875 L 15.996094 18 L 14 18 L 14 15 L 18 15 L 18 15.996094 L 18.375 15.996094 A 1.0044145 1.0044145 0 0 1 19 16.214844 L 19 14 L 17 14 L 17 13 L 20 13 L 20 12 L 13 12 L 13 11 L 15 11 L 15 6 L 9 6 z M 10 7 L 14 7 L 14 10 L 10 10 L 10 7 z M 6 15 L 10 15 L 10 18 L 6 18 L 6 15 z "
     style="color:#000000;clip-rule:nonzero;display:inline;overflow:visible;visibility:visible;opacity:0.4;isolation:auto;mix-blend-mode:normal;color-interpolation:sRGB;color-interpolation-filters:linearRGB;solid-color:#000000;solid-opacity:1;fill:#bebebe;fill-opacity:1;fill-rule:nonzero;stroke:none;stroke-width:1;stroke-linecap:butt;stroke-linejoin:miter;stroke-miterlimit:4;stroke-dasharray:none;stroke-dashoffset:0;stroke-opacity:1;marker:none;color-rendering:auto;image-rendering:auto;shape-rendering:auto;text-rendering:auto;enable-background:accumulate" />
  <path
     style="color:#bebebe;display:inline;overflow:visible;visibility:visible;fill:#bebebe;fill-opacity:1;stroke:none;stroke-width:2;marker:none"
     id="path13596"
     d="m 17,17.0001 1.375,0 1.125,1.0938 1.09375,-1.0938 1.40625,0 0,1.4688 -1.09375,1.0625 1.09375,1.0625 0,1.4062 -1.4375,0 -1.0625,-1.0625 -1.0625,1.0625 -1.4375,0 0,-1.4062 1.0625,-1.0625 L 17,18.4689 17,17.0001 Z" />
</svg>

<?xml version="1.0" encoding="UTF-8" standalone="no"?>
<svg
   xmlns:dc="http://purl.org/dc/elements/1.1/"
   xmlns:cc="http://creativecommons.org/ns#"
   xmlns:rdf="http://www.w3.org/1999/02/22-rdf-syntax-ns#"
   xmlns:svg="http://www.w3.org/2000/svg"
   xmlns="http://www.w3.org/2000/svg"
   xmlns:sodipodi="http://sodipodi.sourceforge.net/DTD/sodipodi-0.dtd"
   xmlns:inkscape="http://www.inkscape.org/namespaces/inkscape"
   id="svg7384"
   height="24"
   width="24"
   version="1.1"
   inkscape:version="0.91 r13725"
   sodipodi:docname="network-wired-offline.svg">
  <sodipodi:namedview
     pagecolor="#ffffff"
     bordercolor="#666666"
     borderopacity="1"
     objecttolerance="10"
     gridtolerance="10"
     guidetolerance="10"
     inkscape:pageopacity="0"
     inkscape:pageshadow="2"
     inkscape:window-width="1366"
     inkscape:window-height="716"
     id="namedview16"
     showgrid="false"
     showguides="false"
     inkscape:zoom="9.8333333"
     inkscape:cx="12"
     inkscape:cy="12"
     inkscape:window-x="0"
     inkscape:window-y="24"
     inkscape:window-maximized="1"
     inkscape:current-layer="svg7384" />
  <title
     id="title9167">elementary Symbolic Icon Theme</title>
  <metadata
     id="metadata90">
    <rdf:RDF>
      <cc:Work
         rdf:about="">
        <dc:format>image/svg+xml</dc:format>
        <dc:type
           rdf:resource="http://purl.org/dc/dcmitype/StillImage" />
        <dc:title>elementary Symbolic Icon Theme</dc:title>
      </cc:Work>
    </rdf:RDF>
  </metadata>
  <defs
     id="defs7386" />
  <g
     id="g4143"
     transform="matrix(0.77777778,0,0,0.77777778,1.8888889,1.1110722)">
    <g
       transform="translate(-473.0004,610)"
       id="layer10"
       style="display:inline" />
    <g
       transform="translate(-473.0004,610)"
       id="layer11" />
    <g
       transform="translate(-473.0004,610)"
       id="layer13"
       style="display:inline" />
    <g
       transform="translate(-473.0004,610)"
       id="layer14" />
    <g
       transform="translate(-473.0004,610)"
       id="layer15"
       style="display:inline" />
    <g
       transform="translate(-473.0004,610)"
       id="g71291"
       style="display:inline" />
    <g
       transform="translate(-473.0004,610)"
       id="g4953"
       style="display:inline" />
    <g
       transform="translate(-473.0004,610)"
       id="layer12"
       style="display:inline" />
    <path
       style="color:#000000;clip-rule:nonzero;display:inline;overflow:visible;visibility:visible;opacity:0.4;isolation:auto;mix-blend-mode:normal;color-interpolation:sRGB;color-interpolation-filters:linearRGB;solid-color:#000000;solid-opacity:1;fill:#bebebe;fill-opacity:1;fill-rule:nonzero;stroke:none;stroke-width:1;stroke-linecap:butt;stroke-linejoin:miter;stroke-miterlimit:4;stroke-dasharray:none;stroke-dashoffset:0;stroke-opacity:1;marker:none;color-rendering:auto;image-rendering:auto;shape-rendering:auto;text-rendering:auto;enable-background:accumulate"
       d="m 9,6 0,5 2,0 0,1 -7,0 0,1 3,0 0,1 -2,0 0,5 6,0 0,-5 -2,0 0,-1 6,0 0,1 -2,0 0,5 3.146484,0 a 1.0044145,1.0044145 0 0 1 -0.15039,-0.53125 L 15.996094,18 14,18 l 0,-3 4,0 0,0.996094 0.375,0 A 1.0044145,1.0044145 0 0 1 19,16.214844 L 19,14 l -2,0 0,-1 3,0 0,-1 -7,0 0,-1 2,0 0,-5 -6,0 z m 1,1 4,0 0,3 -4,0 0,-3 z m -4,8 4,0 0,3 -4,0 0,-3 z"
       id="rect2986-4"
       inkscape:connector-curvature="0" />
    <path
       d="m 17,17.0001 1.375,0 1.125,1.0938 1.09375,-1.0938 1.40625,0 0,1.4688 -1.09375,1.0625 1.09375,1.0625 0,1.4062 -1.4375,0 -1.0625,-1.0625 -1.0625,1.0625 -1.4375,0 0,-1.4062 1.0625,-1.0625 L 17,18.4689 17,17.0001 Z"
       id="path13596"
       style="color:#bebebe;display:inline;overflow:visible;visibility:visible;fill:#bebebe;fill-opacity:1;stroke:none;stroke-width:2;marker:none"
       inkscape:connector-curvature="0" />
  </g>
</svg>
